svgs/kindle.svg

<svg width="192" height="192" viewBox="0 0 192 192" fill="none" xmlns="http://www.w3.org/2000/svg">
<path d="M160.299 165.633C145.928 163.623 129.748 154.277 127.135 138.7C124.522 127.947 114.874 118.098 110.453 107.446C115.377 101.416 122.613 99.1046 128.743 94.4817C131.657 83.9296 137.687 75.1864 145.526 67.3477C146.43 66.3427 146.028 65.4382 144.722 65.4382C140.903 65.7397 136.079 64.0313 132.863 66.4432C127.034 73.5785 120.603 80.3117 115.276 87.849C116.181 88.05 116.884 88.1505 118.09 88.4519C114.07 95.6877 105.227 96.8937 98.795 101.315C95.8806 103.426 95.0766 100.311 92.2627 100.009C96.2825 97.1951 90.7552 94.2807 89.0468 91.9693C82.1125 84.9346 79.3991 76.4929 74.4748 67.9507C90.1522 71.468 83.218 74.6839 93.6696 61.8204C99.5989 61.2174 90.9562 50.4643 99.4984 50.9667C101.508 48.3538 104.222 43.2285 101.81 39.7111C97.589 33.9828 93.9711 23.5312 85.9314 23.0287C65.1286 16.8984 52.0641 39.5101 59.9028 55.2881L59.5008 55.8911C60.3048 56.3936 61.0083 56.7955 61.8122 57.298C61.4103 58.303 61.0083 59.4085 60.5058 60.5139C57.7924 59.6094 54.9785 58.0015 53.672 61.7199C47.3407 69.8601 38.3966 75.5884 35.5827 86.241C28.7489 103.526 33.7737 121.817 33.8742 139.705C35.0802 141.816 38.5975 140.308 40.6075 140.71C40.0045 141.012 39.301 141.514 38.2961 142.017C40.0045 144.428 41.6124 146.639 43.0194 148.649C75.5803 157.694 69.048 156.991 99.4984 131.364L105.629 138.901C108.041 141.916 109.649 153.172 115.176 147.745C118.794 153.071 124.824 156.991 123.216 164.126C140.903 166.035 165.223 175.582 160.198 165.332L160.299 165.633ZM74.4748 116.591C71.8619 114.179 75.1783 109.054 75.1783 105.536C78.7961 106.541 79.1981 112.571 84.3235 110.863C81.1076 112.772 77.8917 114.782 74.5753 116.591H74.4748Z" stroke="black" stroke-width="12" stroke-linejoin="round"/>
</svg>

<svg xmlns="http://www.w3.org/2000/svg" width="192" height="192" fill="none" viewBox="0 0 192 192"><path stroke="#000" stroke-linejoin="round" stroke-width="12" d="M160.299 165.633c-14.371-2.01-30.551-11.356-33.164-26.933-2.613-10.753-12.261-20.602-16.682-31.254 4.924-6.03 12.16-8.341 18.29-12.964 2.914-10.552 8.944-19.296 16.783-27.134.904-1.005.502-1.91-.804-1.91-3.819.302-8.643-1.407-11.859 1.005-5.829 7.136-12.26 13.869-17.587 21.406.905.201 1.608.301 2.814.603-4.02 7.236-12.863 8.442-19.295 12.863-2.914 2.111-3.718-1.004-6.532-1.306 4.02-2.814-1.508-5.728-3.216-8.04-6.934-7.034-9.648-15.476-14.572-24.018 15.677 3.517 8.743 6.733 19.195-6.13 5.929-.604-2.714-11.357 5.828-10.854 2.01-2.613 4.724-7.739 2.312-11.256-4.221-5.728-7.839-16.18-15.879-16.682-20.802-6.13-33.867 16.481-26.028 32.26l-.402.602c.804.503 1.507.904 2.311 1.407-.402 1.005-.804 2.11-1.306 3.216-2.714-.905-5.528-2.513-6.834 1.206-6.331 8.14-15.275 13.868-18.09 24.521-6.833 17.285-1.808 35.576-1.708 53.464 1.206 2.111 4.723.603 6.733 1.005-.602.302-1.306.804-2.31 1.307 1.708 2.411 3.315 4.622 4.722 6.632 32.561 9.045 26.029 8.342 56.48-17.285l6.13 7.537c2.412 3.015 4.02 14.271 9.547 8.844 3.618 5.326 9.648 9.246 8.04 16.381 17.687 1.909 42.007 11.456 36.982 1.206l.101.301Zm-85.824-49.042c-2.613-2.412.703-7.537.703-11.055 3.618 1.005 4.02 7.035 9.145 5.327-3.215 1.909-6.431 3.919-9.748 5.728h-.1Z"/></svg>
